!!!!SEGMENT: pl-wtm--r-2513_hertz-michal--scherzo.krn
!!!cenid: 18xx:3083
!!!COM: Hertz, Michał
!!!COM-rismID: pe41023359
!!!CDT: 1844/09/28-~1918
!!!CNT: Polish
!!!OTL: Scherzo
!!!PDT:
!!!AGN:
!!!SMS-siglum: PL-Wtm
!!!SMS-shelfmark: R 2513
!!!SMS-shelfwork: W
!!!SMS-variant:
!!!SMS-altvar:
!!!NIFC-rismSourceID: 1001086275
!!!NIFC-islandoraID:
!!!URL-pdf-islandora:
!!!URL-scan:
!!!ONB-nifc:
!!!OMD: Presto
!!!AIN: 1 forte
!!!key:
**kern	**kern	**dynam
*part1	*part1	*part1
*staff2	*staff1	*
*>[A,B,A,C]	*>[A,B,A,C]	*>[A,B,A,C]
*>A	*>A	*>A
*Iforte	*Iforte	*
*I"Fortepian	*I"Fortepian	*
*clefF4	*clefG2	*
*k[b-e-a-]	*k[b-e-a-]	*
*c:	*c:	*
*M3/4	*M3/4	*
*all\right	*all\right	*
=1	=1	=1
!	!LO:TX:t=P:problem=w utworze niejednoznaczny podział formy [brak znaków segno]	!
8r	8r	f
8c 8C\	8ccc 8cc\	.
4C 4CC/	4cc 4c\	.
8r	8r	.
8C 8EE-/	8c/	.
=2	=2	=2
!	!	!LO:DY:rj
(4.E- 4.GG\	[2.g [2.G/	p
8D 8FF\	.	.
4C 4EE-\)	.	.
=3	=3	=3
(4BBn (4DD\	2.g_ 2.G/_	.
!	!	!LO:HP:b=2
.	.	<
4C) 4EE-\)	.	.
4D 4FF\	.	.
=4	=4	=4
(4E- (4GG\	4g] 4G/]	[
!	!	!LO:HP:b=2
.	.	>
4C) 4EE-\)	4r	.
4r	4r	]
=5	=5	=5
8r	8r	.
!	!	!LO:DY:rj
8e- 8E-\	8eee- 8ee-\	f
4E- 4EE-\	4ee- 4e-\	.
8r	8r	.
8E- 8GG\	8e-/	.
!!LO:LB:g=original
=6	=6	=6
*	*2\right	*
!	!	!LO:DY:rj
(4.G 4.BB-\	[2.b- [2.B-\	p
8F 8AA-\	.	.
4E- 4GG\)	.	.
=7	=7	=7
!	!	!LO:HP:b=2
(4D (4FF\	2.b-_ 2.B-\_	<
4E- 4GG\))	.	.
4F 4AA-\	.	[[
=8	=8	=8
!	!	!LO:HP:b=2
(4G (4BB-\	4b-] 4B-\]	>
4E- 4GG\))	4r	.
4r	4r	]
=9	=9	=9
!	!	!LO:DY:rj
4e- 4E-\	8r	f
!LO:TX:b:Bi:t=po-co a po-co cre-scen-do:problem=dynamics with extention lines	!	!LO:HP:b=2:t=po-co a po-co cre-scen-do
.	8ggg 8gg\	<
8r	4gg 4g\	.
8e- 8E-\	.	.
4E- 4EE-\	(8aa-L 8a-\	.
.	8aanJ 8an\)	.
=10	=10	=10
8r	(4bb- (4b-\	.
8d 8D\	.	.
2D 2DD/	4ccc) 4cc\)	.
.	4ddd 4dd\	.
=11	=11	=11
4c 4C\	8r	.
.	8eee- 8ee-\	.
8r	4ee- 4e-\	.
8c 8C\	.	.
4C 4CC/	(8ffL 8f\	.
.	8ff#XJ 8f#X\)	.
=12	=12	=12
8r	(4gg (4g\	.
8B- 8BB-\	.	.
2BB- 2BBB-/	4aa-) 4a-\)	.
.	4bb- 4b-\	.
!!LO:LB:g=original
=13	=13	=13
(4.A- 4.AA-\	8r	.
.	8ccc 8aa- 8ee- 8cc\	.
.	2cc 2a- 2e- 2c/	.
8G 8GG\	.	.
4G-X 4GG-X\)	.	.
=14	=14	=14
(4F (4FF\	8r	.
.	8ddd 8ccc 8aa- 8dd\	.
4E-) 4EE-\)	2dd 2cc 2a- 2d\	.
4D 4DD\	.	.
=15	=15	=15
(4.E- 4.EE-\	8r	.
.	8fff 8ccc 8aa- 8ff\	.
.	2ff 2cc 2a- 2f\	.
8D 8DD\	.	.
4C 4CC/)	.	.
=16	=16	=16
(4BBn (4BBBn/	8r	.
.	8ggg 8fff 8ddd 8gg\	.
4AAn 4AAAn/))	2gg 2ff 2dd 2g\	[[
4BB 4BBB/	.	.
=17	=17	=17
8C 8CCL\	8r	f
8c 8CJ\	8ccc 8aa- 8cc\	.
4C 4CC/	4cc 4c\	.
8r	8r	.
8C 8EE-/	8c/	.
=18	=18	=18
!	!	!LO:DY:rj
(4.E- 4.GG\	2.g 2.G/	p
8D 8FF\	.	.
4C 4EE-\)	.	.
!!LO:LB:g=original
=19	=19	=19
(4BBn (4BBBn\	(4.ee- 4.g 4.e-\	.
4C) 4CC\)	.	.
.	8dd 8f 8d\	.
4r	4cc 4e- 4c\)	.
=20	=20	=20
(4.E- 4.GG\	(4bn (4Bn\	.
.	4cc) 4c\)	.
8D 8FF\	.	.
4C 4EE-\)	4r	.
=21	=21	=21
8r	8r	f
(8e- 8E-\	8eee- 8ee-\	.
4E- 4EE-\)	4ee- 4e-\	.
8r	8r	.
8E- 8GG\	8e-/	.
.	.	p
=22	=22	=22
(4.G 4.BB-\	2.b- 2.B-\	.
8F 8AA-\	.	.
4E- 4GG\)	.	.
=23	=23	=23
(4D (4DD\	(4.gg 4.b- 4.g\	.
4E-) 4EE-\)	.	.
.	8ff 8a- 8f\	.
4r	4ee- 4g 4e-\)	.
=24	=24	=24
(4.G 4.BB-\	(4dd (4d\	.
.	4ee-) 4e-\)	.
8F 8AA-\	.	.
4E- 4GG\)	4r	.
!!LO:LB:g=original
=25	=25	=25
4d 4D\	8r	.
.	8bb- 8aa- 8b-\	.
!	!	!LO:DY:rj
(8DL 8DD\	4b- 4a- 4B-\	f
8CJ 8CC\)	.	.
!LO:TX:b:Bi:t=po-co a po-co cre-scen-do:problem=dynamics with extention lines	!	!LO:HP:b=2:t=po-co a po-co cre-scen-do
4BB- 4BBB-/	(8ccL 8a- 8c\	<
.	8ddJ 8a- 8d\)	.
=26	=26	=26
8r	(4ee- 4g (4e-\	.
8C 8CC/	.	.
*2\right	*	*
2c 2C\	4ff) 4g 4f\)	.
.	4gg 4ee- 4g\	.
=27	=27	=27
4B- 4BB-\	8r	.
.	8ggg 8bb- 8gg\	.
(8BB-L 8BBB-/	(4gg 4b- 4g\	.
8AA-J 8AAA-/)	.	.
4GG 4GGG/	8aa-L 8b- 8a-\	.
.	8bb-J 8ee- 8b-\)	.
=28	=28	=28
8r	(4ccc 4ee- (4cc\	.
8AA- 8AAA-/	.	.
2A- 2AA-\	4ddd) 4ee- 4dd\)	.
.	4eee- 4ccc 4ee-\	.
=29	=29	=29
(4.A- 4.AA-\	8r	.
.	8ccc 8aa- 8ee- 8cc\	.
.	2cc 2a- 2e- 2c/	.
8G 8GG\	.	.
4G-X 4GG-X\)	.	.
=30	=30	=30
(4F (4FF\	8r	.
.	8ddd 8ccc 8aa- 8dd\	.
4E-) 4EE-\)	2dd 2cc 2a- 2d\	.
4D 4DD/	.	.
=31	=31	=31
(4.E- 4.EE-\	8r	.
.	8fff 8ccc 8aa- 8ff\	.
.	2ff 2cc 2a- 2f/	.
8D 8DD\	.	.
4C 4CC\)	.	.
=32	=32	=32
(4D (4DD\	8r	.
.	8bb- 8aa- 8ff 8b-\	.
4C) 4CC/)	2b- 2a- 2f 2B-\	.
4BB- 4BBB-/	.	[
!!LO:PB:g=original
=33	=33	=33
!	!LO:TX:t=P:problem=niejednoznaczny zapis wysokości dźwięków	!LO:DY:rj
8E-L 8EE-\	4bb- 4gg- 4ee-\	f
8e-J 8E-\	.	.
4E- 4EE-\	4r	.
8r	4r	.
*8ba	*	*
8EE-\	.	p
=34	=34	=34
(4.GG-X\	2.r	.
8FF\	.	.
4EE-\)	.	.
*X8ba	*	*
=35	=35	=35
!	!	!LO:HP:b=2
(4D\	2.r	<
4E-\	.	.
4F\)	.	.
=36	=36	=36
(4G-X\	2.r	[[
4E-\)	.	.
4r	.	.
=37	=37	=37
8r	2.r	p
8G-X\	.	.
4GG-X/	.	.
8r	.	.
8G-\	.	.
=38	=38	=38
8c-X\	2.r	.
8r	.	.
2C-X/	.	.
!!LO:LB:g=original
=39	=39	=39
8r	2.r	.
8F\	.	.
4FF/	.	.
8r	.	.
8F\	.	.
=40	=40	=40
8An\	2.r	.
8r	.	.
4AAn/	.	.
8r	.	.
8A\	.	.
=41	=41	=41
!	!	!LO:DY:a
(8B-\L	8r	p
8A-X\	8b-\	.
8G\	4B-/	.
8A-\	.	.
8G\	8r	.
8G-X\J)	8B-/	.
=42	=42	=42
(8F\L	(4.d-X/	.
8G-X\	.	.
8F\	.	.
8E-\	8c/	.
8D-X\	4B-/)	.
8BB-\J)	.	.
=43	=43	=43
!	!	!LO:HP:a
(8C\L	(>4An/	<
8E-\	.	.
8D-X\	4B-/)	.
8C\	.	.
8BB-\	4c/	.
8AAn\J)	.	.
=44	=44	=44
(8BB-\L	(4d-X/	.
8C\	.	[
8D-X\	4B-/)	.
8E-\J)	.	.
4En\	4r	.
!!LO:LB:g=original
=45	=45	=45
!	!	!LO:DY:a:rj
(4.F\	8r	p
.	8dd-X\	.
.	4d-X/	.
8En\	.	.
4F\)	8r	.
.	8dd-\	.
=46	=46	=46
(4E-X\	8gg-X\	.
.	8r	.
4D\	2g-X/	.
4E-\)	.	.
=47	=47	=47
(4.A-\	8r	.
.	8cc\	.
.	4c/	.
8G\	.	.
4A-\)	8r	.
.	8cc\	.
=48	=48	=48
(4An\	8ff\	.
.	8r	.
4G\)	2f/	.
4A\	.	.
=49	=49	=49
(8B-L 8BB-\	8r	.
8AnJ 8AAn\)	8dd\	.
(4A-X (4AA-X\	2d/	.
8GL) 8GG\)	.	.
8A-J 8AA-\	.	.
=50	=50	=50
(8G-XL 8GG-X\	8r	.
8FJ 8FF\)	8bb-\	.
(4E- (4EE-\	2b-\	.
8DL) 8DD\)	.	.
8E-J 8EE-\	.	.
!!LO:LB:g=original
=51	=51	=51
4.D 4.DD\	8r	.
!	!	!LO:HP:b=2
.	8ff\	<
.	2f/	.
8E- 8EE-\	.	.
(8DL 8DD\	.	.
8CJ 8CC\)	.	.
=52	=52	=52
(8DL 8DD\	8r	.
8C 8CC\	8gg-X\	.
8BB- 8BBB-\	[2g-X/	.
8AAnJ 8AAAn\)	.	.
4BB- 4BBB-/	.	[
=53	=53	=53
*	*^	*^
!	!	!	!LO:DY:a:rj	!LO:DY:rj
(4.C-X 4.CC-X/	8r	(8g-X\L]	p	p
.	8ee-/	8f\	.	.
.	4e-/	8e-\	.	.
8BB- 8BBB-/	.	8d-X\	.	.
8AA-L 8AAA-\)	8r	8c\	.	.
8A-J 8AA-\	8e-/	8c-X\J)	.	.
*	*	*	*v	*v
=54	=54	=54	=54
(<8G-XL 8GG-X\	(4.g-X/	(4.B-\	.
8F 8FF\	.	.	.
8G- 8GG-\	.	.	.
8AA-\	8f/	8A-\	.
8BB-\	4e- 4G-X/)	4G-\)	.
8C-X\J)	.	.	.
=55	=55	=55	=55
!	!	!	!LO:HP:a
(8BB-/L	(4d/	4G-X\	<
8AAn/	.	.	.
!	!	!LO:S:s=1:note:problem=note-level slur	!
8AA-X/	4e-/)	(>8c-X\L	.
8GG-X/)	.	8B-\J)	.
8FF/	4f/	4A-\	.
8DJ 8DD/	.	.	.
=56	=56	=56	=56
(4E- 4EE-\	(4g-X/	(4B-\	.
8FL 8FF\)	4e-/)	4A-\)	.
8FJ 8FF\	.	.	.
4G-X 4GG-X\	4r	4B-\	[
!!LO:LB:g=original
=57	=57	=57	=57
!	!	!	!LO:DY:rj
4.c-X\	8r	(>8e-\L	p
!	!	!LO:S:s=1:note:problem=note-level slur	!
.	8gg-X/	8d\J)	.
.	4g-X/	2e-\	.
8B-\	.	.	.
4An\	8r	.	.
.	8gg-/	.	.
=58	=58	=58	=58
!LO:TX:t=P:dot.color=dodgerblue:problem	!	!	!
(4A.-X\	8ccc-X/	2.d\	.
.	8r	.	.
.	2cc-X/	.	.
!LO:TX:t=P:stem.color=dodgerblue:problem	!	!	!
8G\)	.	.	.
4G-X'\	.	.	.
=59	=59	=59	=59
4.An\	8r	(>8d-X\L	.
!	!	!LO:S:s=1:note:problem=note-level slur	!
.	8ff/	8c\J)	.
.	4f/	2d-\	.
8A-X\	.	.	.
4G\	8r	.	.
.	8ff/	.	.
=60	=60	=60	=60
(4G-X\	8aan/	2.c\	.
.	8r	.	.
4F'\)	2an/	.	.
4E-'\	.	.	.
=61	=61	=61	=61
8D-X\L	(4.b-/	(2.f\	.
8d-X\J	.	.	.
4D-\	.	.	.
.	8cc/	.	.
8r	[4dd-X/)	.	.
8d-\	.	.	.
=62	=62	=62	=62
8g-X\	(4dd-/]	2.an\)	.
8r	.	.	.
2G-X\	4ee-'/)	.	.
.	4een'/	.	.
=63	=63	=63	=63
8r	(4.ff/	[2.an\	.
8c\	.	.	.
4C\	.	.	.
.	8gg-X/	.	.
8r	[4ff/)	.	.
8c\	.	.	.
!!LO:LB:g=original
=64	=64	=64	=64
8f\	(4ff/]	2.a\]	.
8r	.	.	.
2F\	4ee-'/)	.	.
.	4dd-X'/	.	.
=65	=65	=65	=65
*	*	*	*^
!LO:TX:t=P:problem=fragment nieczytelny	!	!	!LO:DY:a:rj	!LO:DY:b=2
8f 8F\	8r	8b-\L	f	f
8r	8bb-/	8a-X\	.	.
4.e- 4.E-\	4b-/	8g-X\	.	.
.	.	8a-\	.	.
.	8r	8g-\	.	.
(16d-XLL 16D-X\	8b-/	8f\J	.	.
16cJJ 16C\)	.	.	.	.
*	*	*	*v	*v
=66	=66	=66	=66
*	*	*^	*
4.B- 4.BB-\	(4.dd-X/	(4.B-\	2f/	.
8A- 8AA-\	8cc/	8c\	.	.
4G-X 4GG-X\	4b- 4en/)	4d-X\)	4ryy	.
*	*v	*v	*v	*
=67	=67	=67
!	!	!LO:HP:a
8FL 8FF\	(8anL 8c/	<
!	!LO:N:vis=2.	!
8EnJ 8EEn\	8f/J	.
4D-X 4DD-X\	4b- 4B-/)	.
4C 4CC/	4cc 4f 4An/	.
=68	=68	=68
(8BB-\L	(4dd-X 4f (4B-/	.
8C\	.	[
!	!LO:TX:a:t=b.\n b\n f	!
8D-X\	4b- 4B- 4F/))	.
8C\)	.	.
8D-\	4r	.
8d-XJ 8D-\	.	.
=69	=69	=69
*	*^	*
(4.e-X 4.G-X\	8r	[>2.b- (2.d-X\	.
.	8ddd-X/	.	.
!	!	!	!LO:DY:b=2:rj
.	4dd-X/	.	p
8d 8D\	.	.	.
4en 4En\)	8r	.	.
.	8ddd-/	.	.
=70	=70	=70	=70
4e-X 4E-X\	8ggg-X/	2.b-] 2.e-X\)	.
.	8r	.	.
4d 4D\	2gg-X/	.	.
4d-X 4D-X\	.	.	.
!!LO:PB:g=original
=71	=71	=71	=71
(4.en (4.En\	8r	[>2.an (2.f\	.
.	(8ccc/	.	.
.	4cc/	.	.
8e-X 8E-X\	.	.	.
4d) 4D\)	8r	.	.
.	8ccc 8aa-/)	.	.
=72	=72	=72	=72
(4d-X (4D-X\	8fff/	2.a] 2.e-\)	.
.	8r	.	.
4c) 4C\)	2ff/	.	.
4c-X 4C-X\	.	.	.
=73	=73	=73	=73
*	*	*^	*
[2.B- [2.BB-\	(4.gg-X 4.b- 4.e-/	(4.e-\	[2.b-\	f
.	8ff 8f/	8f\	.	.
.	[4ee- 4g-X/)	4g-\)	.	.
=74	=74	=74	=74	=74
2.B-] 2.BB-\]	(4ee-/]	4ryy	2b-] 2f\	.
.	4dd-X/)	4dd-\	.	.
.	4cc/	4g-X 4e-\	4ryy	.
*	*v	*v	*v	*
=75	=75	=75
!	!	!LO:HP:a
(4.c 4.C\	(4.ee- 4.g-X 4.e-\	<
8B- 8BB-\	8ddn 8g- 8e-\)	.
4An 4AAn\)	[4cc 4gn 4e-\	.
=76	=76	=76
4D 4DD\	(4cc] (4f#X 4d\	.
4En 4EEn\	4b-) 4g\)	.
4F#X 4FF#X\	4a- 4d 4c\	[
=77	=77	=77
!	!	!LO:DY:rj
8GL 8GG\	4g 4d 4B-/	f
8gJ 8G\	.	.
4G 4GG\	4r	.
8r	4r	.
8G 8D 8BB-\	.	p
!!LO:LB:g=original
=78	=78	=78
(4.B- 4.G 4.D\	8r	.
.	8ddd 8dd\	.
.	[2dd [2d\	.
8An 8D 8C\	.	.
4G 4D 4BB-\)	.	.
=79	=79	=79
(4F#X 4D (4AA-\	2.dd_ 2.d\_	.
4G 4D 4BB-\))	.	.
4An 4BB- 4AA-\	.	.
=80	=80	=80
!LO:S:s=2:note:problem=note-level slur	!	!
(4B- (4G (4D\	8dd]L 8d\]	.
.	8dddJ 8dd\	.
8GL) 8D) 8BB-\)	8dd 8d\	.
8dJ 8D\	8r	.
4D 4DD\	4r	f
=81	=81	=81
4E- 4EE-\	8r	.
.	8ee- 8e-\	.
4r	4e- 4E-/	.
4r	8r	.
!	!	!LO:DY:rj
.	8e- 8B- 8G/	p
=82	=82	=82
8r	(>4.g 4.e- 4.B-/	.
8E- 8EE-\	.	.
4EE- 4EEE-/	.	.
.	8f 8B- 8A-/	.
4E- 4EE-\	4e- 4B- 4G/)	.
!!LO:LB:g=original
=83	=83	=83
(4F (4FF\	(4d 4B- (4A-/	.
4E-) 4EE-\)	4e- 4B- 4G/))	.
4D 4DD\	4f 4B- 4A-/	.
=84	=84	=84
*	*^	*
!	!	!	!LO:DY:rj
(4E- (4EE-\	8r	(4g 4B- (4G\	f
.	8ee- 8e-/	.	.
8GL) 8GG\)	4e- 4B-/	4B-\))	.
8e-J 8E-\	.	.	.
4E- 4EE-\	4r	4ryy	.
=85	=85	=85	=85
4e- 4E-\	4rgg	8r	.
.	.	8ee-\	.
!	!	!	!LO:DY:rj
4r	4ree	[2e-\	p
(8FL 8FF\	(<8a-/L	.	.
8GJ 8GG\)	8b-/J)	.	.
=86	=86	=86	=86
*^	*	*	*
(4A- (4AA-\	2ryy	(4dd/	2e-\]	.
4F) 4FF\)	.	4a-/)	.	.
[4A-/	4F\	4r	4e-\	.
*	*	*v	*v	*
=87	=87	=87	=87
4.A-/]	4.BB-\	4.d/	<
8A-/	8F\	8d/	.
!LO:TX:a:t=P:problem=brak początku ligatury	!	!	!
[4B-/	4G\	4e-/	[
*v	*v	*	*
!!LO:LB:g=original
=88	=88	=88
*^	*^	*
N(>4B-/]	(>4A-\	8r	(4f\	.
.	.	8b-/	.	.
!	!LO:N:vis=4	!	!	!
2ryy	8F\)	8c</LN)	4d\)	.
!	!LO:N:vis=4	!	!	!
.	8r	8B-</J	.	.
.	4BB-\	4BB-</	4ryy	.
*v	*v	*	*	*
=89	=89	=89	=89
4BB- 4BBB-/	4rgg	8r	.
!	!	!	!LO:DY:rj
.	.	8dd\	p
4r	4rgg	[2d\	.
(8E-L 8EE-\	(<8g/L	.	.
8FJ 8FF\)	8a-/J)	.	.
=90	=90	=90	=90
*^	*	*	*
(4G (4GG\	2ryy	(4b-/	2d\]	.
4E-) 4EE-\)	.	4g/)	.	.
4E-\	4G/	4r	4d\	.
*	*	*v	*v	*
=91	=91	=91	=91
4.G/	4.AA-\	4.c/	.
8G/	8E-\	8c/	<
4A-/	4F\	4d/	.
=92	=92	=92	=92
*	*	*^	*
N(>4A-/	4G\	8r	(>4e-\	[
.	.	8a-/	.	.
2ryy	4E-\	8c</LN)	4c\)	.
.	.	8A-</J	.	.
.	4r	4AA-</	4ryy	.
*v	*v	*	*	*
!!LO:LB:g=original
=93	=93	=93	=93
4AA- 4AAA-/	4rgg	8r	.
.	.	8cc\	.
4r	4r	[>2c\	.
(8A-L 8AA-\	(<8f/L	.	.
8GJ 8GG\)	8g/J)	.	.
=94	=94	=94	=94
(4F 4FF\	(4a-/	2c\]	.
4AA- 4AAA-\)	4f/)	.	.
!	!	!	!LO:DY:rj
4A- 4AA-\	4cc 4f 4c/	4ryy	f
=95	=95	=95	=95
*^	*	*	*
!	!	!	!LO:N:n=1:vis=4	!
4.G/	4G 4GG\	4bn/	4.bn 4.g 4.Bn\	.
.	4r	4r	.	.
!	!	!	!	!LO:DY:rj
8G/	.	.	8g 8B\	p
4An/	4r	4r	4g 4c\	.
=96	=96	=96	=96	=96
!	!	!	!LO:S:s=1:note:problem=note-level slur	!
(<4Bn/	4r	2g/	(>4d\	.
4G/)	4r	.	4Bn\)	.
4GG 4GGG/	4ryy	4r	4ryy	.
*v	*v	*	*	*
=97	=97	=97	=97
4AA- 4AAA-/	4rgg	8r	.
.	.	8cc\	.
4r	4r	[>2c\	.
(8A-L 8AA-\	(<8f/L	.	.
8GJ 8GG\)	8g/J)	.	.
!!LO:LB:g=original
=98	=98	=98	=98
!	!	!LO:TX:b:t=P:problem=koniec ligatury na dole	!
(4F 4FF\	(4a-/	2c\]	.
4AA- 4AAA-/)	4f/)	.	.
!	!LO:TX:t=P:problem=skreślone takty [4]	!	!LO:DY:rj
4A- 4AA-\	4cc 4f 4c/	4ryy	f
*	*v	*v	*
!!LO:LB:g=original
=99	=99	=99
8G 8GG/	4.cc 4.e- 4.c\	.
8r	.	.
[2GG [2GGG/	.	.
.	8ccc 8ee- 8cc\	.
.	4cc 4e- 4c/	.
=100	=100	=100
!LO:TX:Bi:b:t=cre-scen-do:problem=dynamics with extention lines	!	!LO:HP:b=2:t=cre-scen-do
4.GG] 4.GGG/]	8cc#X 8en 8c#X\	<
.	8r	.
.	2ccc#X 2een 2cc#X\	.
8G 8GG\	.	.
4GG 4GGG/	.	.
=101	=101	=101
8G 8GG\	4.dd 4.f 4.d\	.
8r	.	.
[2GG [2GGG/	.	.
.	8ddd 8ff 8dd\	.
.	4dd 4f 4d\	.
=102	=102	=102
4.GG] 4.GGG/]	8dd#X 8f#X 8d#X\	.
.	8r	.
.	2ddd#X 2ff#X 2dd#X\	.
8G 8GG\	.	.
[4GG [4GGG/	.	[
!!LO:PB:g=original
=103	=103	=103
4.GG] 4.GGG/]	8ddn 8f 8dn\	.
.	8r	.
*	*2\left	*
.	2dddn 2ffn 2ddn\	.
8G 8GG\	.	.
!	!	!LO:HP:b=2
[4GG [4GGG/	.	<
=104	=104	=104
4.GG] 4.GGG/]	8dd#X 8f#X 8d#X\	.
.	8r	.
.	2ddd#X 2ff#X 2dd#X\	.
8G 8GG\	.	.
[4GG [4GGG/	.	.
=105	=105	=105
*^	*	*
4.GG] 4.GGG/]	2ryy	8een 8g 8en\	.
.	.	8r	.
.	.	2eeen 2gg 2een\	.
8G 8GG\	.	.	.
[4GG [4GGG/	4GGG\	.	[
=106	=106	=106	=106
4.GG] 4.GGG/]	4.GGG\	8ff 8a- 8f\	.
.	.	8r	.
.	.	2fff 2aa- 2ff\	.
8G 8GG\	4.ryy	.	.
4GG 4GGG/	.	.	.
*v	*v	*	*
!!LO:LB:g=original
=107	=107	=107
*tremolo	*	*
(32GG\LLL	8r@	.
32G\	.	.
32GG\	.	.
32G\	.	.
!	!LO:TX:t=P:stem.color=dodgerblue:problem	!
32GG\	(8ff 8a- 8f\	.
32G\	.	.
32GG\	.	.
32G\	.	.
!	!LO:TX:t=P:stem.color=dodgerblue:problem	!
32GG\	4ee- 4g 4e-\	.
32G\	.	.
32GG\	.	.
32G\	.	.
32GG\	.	.
32G\	.	.
32GG\	.	.
32G\	.	.
32GG\	4dd 4f 4d\)	.
32G\	.	.
32GG\	.	.
32G\	.	.
32GG\	.	.
32G\	.	.
32GG\	.	.
32G\JJJ)	.	.
*Xtremolo	*	*
=108	=108	=108
4.GG 4.GGG/	8ee- 8g 8e-\	.
.	8r	.
*	*2\right	*
.	2cc 2e- 2c\	.
8G 8GG\	.	.
4GG 4GGG/	.	.
=109	=109	=109
*tremolo	*	*
(32GG\LLL	8r@	.
32G\	.	.
32GG\	.	.
32G\	.	.
!	!LO:TX:t=P:stem.color=dodgerblue:problem	!
32GG\	(8dd 8f 8d\	.
32G\	.	.
32GG\	.	.
32G\	.	.
!	!LO:TX:t=P:stem.color=dodgerblue:problem	!
32GG\	4cc 4e- 4c\	.
32G\	.	.
32GG\	.	.
32G\	.	.
32GG\	.	.
32G\	.	.
32GG\	.	.
32G\	.	.
32GG\	4b- 4d 4B-\)	.
32G\	.	.
32GG\	.	.
32G\	.	.
32GG\	.	.
32G\	.	.
32GG\	.	.
32G\JJJ)	.	.
*Xtremolo	*	*
=110	=110	=110
4.GG 4.GGG/	8cc 8e- 8c\	.
.	8r	.
.	2a- 2c 2A-/	.
8G 8GG\	.	.
[4GG [4GGG/	.	.
=111	=111	=111
4.GG] 4.GGG/]	8bn 8d 8Bn\	.
.	8r	.
.	2g 2B 2G/	.
8G 8GG\	.	.
4GG 4GGG/	.	.
=112	=112	=112
(4AA- (4AAA-/	(4c/	.
4GG) 4GGG/)	4Bn/)	.
4r	4r	.
!!LO:LB:g=original
=113	=113	=113
!	!LO:TX:t=P:problem=skreślone takty [2]	!
(<4.G 4.GG\	8r	.
.	8bn 8d 8Bn/	.
.	2g 2B 2G/	.
8F#X 8FF#X\	.	.
4Fn 4FFn\)	.	.
=114	=114	=114
(4En (4EEn\	4bbn 4gg 4bn\	.
4F) 4FF\)	2gg 2b 2g\	.
4F#X 4FF#X\	.	.
=115	=115	=115
!LO:TX:b:Bi:t=di-mi-nu-en-do:problem=dynamics with extention lines	!	!LO:HP:b=2:t=di-mi-nu-en-do
4.G 4.GG\	8bn 8d 8Bn\	>
.	8r	.
.	2g 2B 2G/	.
8G 8GG\	.	.
4GG 4GGG/	.	.
=116	=116	=116
(4AA- (4AAA-/	(4c/	.
4GG) 4GGG/)	4Bn/)	.
4r	4r	.
!!LO:LB:g=original
=117	=117	=117
(<4.G 4.GG\	8r	.
.	8bn 8g 8Bn\	.
.	2g 2B 2G/	.
8F#X 8FF#X\	.	.
4Fn 4FFn\)	.	.
=118	=118	=118
(4En (4EEn\	8bbn 8gg 8bn\	.
.	8r	.
*	*2\left	*
4F) 4FF\)	2gg 2b 2g\	.
4F#X 4FF#X\	.	.
=119	=119	=119
(4.G 4.GG\	8r	.
.	8bn 8g 8Bn\	.
.	2g 2B 2G/	.
8F#X 8FF#X\	.	.
[4Fn [4FFn\)	.	.
=120	=120	=120
(4.F] 4.FF\]	8bbn 8gg 8bn\	.
.	8r	.
*	*2\right	*
.	2gg 2b 2g\	.
8En 8EEn\	.	.
4F 4FF\)	.	.
=121	=121	=121
(4.En 4.EEn\	8r	.
.	8bn 8g 8Bn/	.
.	2g 2B 2G/	.
8E-X 8EE-X\	.	.
[4D [4DD\)	.	.
=122	=122	=122
(4.D] 4.DD\]	8bbn 8gg 8bn\	.
.	8r	.
.	2gg 2b 2g\	]]
8C#X 8CC#X\	.	.
4D 4DD\)	.	.
!!LO:LB:g=original
=123	=123	=123
8CnL 8CCn\	8r	.
!	!	!LO:DY:rj
8cJ 8C\	8ccc 8cc\	ff
4C 4CC/	4cc 4c\	.
8r	8r	.
8C 8EE-/	8c/	.
.	.	p
=124	=124	=124
(4.E- 4.GG\	[2.g [2.G/	.
8D 8FF\	.	.
4C 4EE-/)	.	.
=125	=125	=125
(4BBn (4DD/	2.g_ 2.G/_	.
4C) 4EE-/)	.	.
4D 4FF\	.	.
=126	=126	=126
(4E- (4GG\	4g] 4G/]	.
4C) 4EE-/)	4r	.
4r	4r	.
!!LO:LB:g=original
=127	=127	=127
8r	8r	f
8e- 8E-\	8eee- 8ee-\	.
4E- 4EE-/	4ee- 4e-\	.
8r	8r	.
8E- 8GG\	8e-/	.
=128	=128	=128
!	!	!LO:DY:rj
(4.G 4.BB-\	[2.b- [2.B-/	p
8F 8AA-\	.	.
4E- 4GG\)	.	.
=129	=129	=129
*	*	*^
(4D (4DD\	2.b-_ 2.B-/_	.	.
!	!	!LO:HP:a	!LO:HP:b=2
.	.	<	<
4E-) 4GG\)	.	.	.
4F 4AA-\	.	.	.
=130	=130	=130	=130
(4G (4BB-\	4b-] 4B-/]	.	.
.	.	[	[
4E-) 4GG\)	4r	.	.
4r	4r	.	.
*	*	*v	*v
!!LO:PB:g=original
=131	=131	=131
4e- 4E-\	8r	.
!	!	!LO:DY:rj
.	8ggg 8gg\	f
8r	4gg 4b- 4g\	.
8e- 8E-\	.	.
4E- 4EE-\	(8aa-L 8a-\	.
!	!LO:TX:Bi:t=po-co a poco cre-scen-do:problem=dynamics with extention lines	!LO:HP:t=po-co a poco cre-scen-do
.	8aanJ 8an\)	<
=132	=132	=132
8r	(4bb- (4b-\	.
8d 8D\	.	.
2D 2DD/	4ccc) 4cc\)	.
.	4ddd 4dd\	.
=133	=133	=133
4c 4C\	8r	.
.	8eee- 8ee-\	.
8r	4ee- 4g 4e-\	.
8c 8C\	.	.
4C 4CC/	(8ffL 8f\	.
.	8ff#XJ 8f#X\)	.
=134	=134	=134
8r	(4gg 4g\	.
8B- 8BB-\	.	.
2BB- 2BBB-/	4aa- 4a-\	.
.	4bb- 4b-\)	.
!!LO:LB:g=original
=135	=135	=135
(4.A- 4.AA-\	8r	.
.	8ccc 8aa- 8ee- 8cc\	.
.	2cc 2a- 2e- 2c/	.
8G 8GG\	.	.
4G-X 4GG-X\)	.	.
=136	=136	=136
(4F 4FF\	8r	.
.	8ddd 8ccc 8aa- 8dd\	.
4E- 4EE-\)	2dd 2cc 2a- 2d/	.
4D 4DD\	.	.
=137	=137	=137
(4.E- 4.EE-\	8r	.
.	8fff 8ccc 8aa- 8ff\	.
.	2ff 2cc 2a- 2f\	.
8D 8DD\	.	.
4C 4CC/)	.	.
=138	=138	=138
(4BBn (4BBBn/	8r	.
.	8ggg 8fff 8ddd 8gg\	.
4AAn) 4AAAn/)	2gg 2ff 2dd 2g\	[
4BB 4BBB/	.	.
!!LO:LB:g=original
=139	=139	=139
8CL 8CC\	8r	ff
8cJ 8C\	8ccc 8cc\	.
4C 4CC/	4cc 4c\	.
8r	8r	.
8C 8EE-/	8c/	.
=140	=140	=140
!	!	!LO:DY:rj
(4.E- 4.GG\	2.g 2.G/	p
8D 8FF\	.	.
4C 4EE-\)	.	.
=141	=141	=141
(4BBn (4BBBn/	(4.ee- 4.g 4.e-\	.
.	.	<
4C) 4CC/)	.	.
.	8dd 8f 8d\	.
4r	4cc 4e- 4c\)	.
=142	=142	=142
(4.E- 4.GG\	(4bn (4Bn\	.
.	4cc) 4c\)	[
8D 8FF\	.	.
4C 4EE-/)	4r	.
!!LO:LB:g=original
=143	=143	=143
8r	8r	.
!	!	!LO:DY:rj
8e- 8E-\	8eee- 8ee-\	f
4E- 4EE-/	4ee- 4e-\	.
8r	8r	.
8E- 8GG\	8e-/	.
=144	=144	=144
!	!	!LO:DY:rj
(4.G 4.BB-\	2.b- 2.B-\	p
8F 8AA-\	.	.
4E- 4GG\)	.	.
=145	=145	=145
(4D (4DD\	(4.gg 4.b- 4.g\	.
4E-) 4EE-\)	.	.
.	8ff 8a- 8f\	.
4r	4ee- 4g 4e-\)	<
=146	=146	=146
4.G 4.BB-\	(4dd (4d\	.
.	4ee-) 4e-\)	.
8F 8AA-\	.	.
4E- 4GG\	4r	[
!!LO:LB:g=original
=147	=147	=147
4e- 4E-\	8r	.
.	8ggg 8gg\	.
!	!	!LO:DY:rj
8r	4gg 4b- 4g\	f
8e- 8E-\	.	.
4E- 4EE-\	(8aa-L 8a-\	.
.	8aanJ 8an\)	.
=148	=148	=148
8r	(4bb- 4b-\	.
8d 8D\	.	.
2D 2DD/	4ccc 4cc\)	.
.	4ddd 4dd'\	.
=149	=149	=149
4c 4C\	8r	.
.	8eee- 8ee-\	.
8r	4ee- 4e-\	.
8c 8C\	.	.
4C 4CC/	(8ffL 8f\	.
.	8ff#XJ 8f#X\)	.
=150	=150	=150
8r	(4gg 4g\	.
8B- 8BB-\	.	.
2BB- 2BBB-/	4aa- 4a-\)	.
.	4bb- 4b-\	.
!!LO:LB:g=original
=151	=151	=151
(4.A- 4.AA-\	8r	f
.	8ccc 8aa- 8ee- 8cc\	.
.	[2cc [2a- [2e- [2c/	.
8G 8GG\	.	.
4G-X 4GG-X\)	.	.
=152	=152	=152
(4F 4FF\	(8cc]L 8a-] 8e-] 8c\]	<
.	8dd 8cc 8a- 8d\	.
8E-L 8EE-\	8ee- 8cc 8a- 8e-\	.
8DJ 8DD\	8ffJ 8cc 8a- 8f\)	.
4E- 4EE-\)	4gg 4cc 4g\	[[
=153	=153	=153
4.D 4.DD\	8r	.
.	8gg 8ff 8bn\	.
.	[2g [2f [2Bn/	.
8C#X 8CC#X/	.	.
4D 4DD\	.	.
=154	=154	=154
(4A- 4AA-\	2g] 2f] 2B/]	.
4G 4GG\)	.	.
8r	8r	.
8GG 8GGG/	8bbn 8gg 8ff 8bn\	.
!!LO:LB:g=original
=155||	=155||	=155||
*>B	*>B	*>B
*k[]	*k[]	*
*M6/8	*M6/8	*
!	!	!LO:DY:rj
(4C (<4CC\	8ccc 8gg 8ee 8cc\	ff
.	[4cc [4e [4c/	.
8G 8GG\)	.	.
8C 8CC/	4.cc_ 4.e_< 4.c\_	.
4GG 4GGG/)	.	.
=156	=156	=156
8CL 8CC\	8cc] 8e] 8c\]	.
(8C (<8CC\	8r	.
!	!	!LO:HP:t=dim
8GJ 8GG\)	8r	>
8C 8CC\	4r	.
4GG 4GGG/)	.	.
.	8r	.
=157	=157	=157
!	!	!LO:DY:rj
(4C 4CC\	8ee 8g\	p
.	[4cc [4e\	.
8G 8GG\)	.	.
(>8C 8CC/	4cc] 4e\]	.
[4GG [4GGG/)	.	.
.	8ff 8a\	.
=158	=158	=158
(8GG]L 8GGG\]	8ee 8g\	.
8C 8CC\	[4cc [4e\	.
8GJ 8GG\)	.	.
(>8C 8CC/	4.cc] 4.e\]	.
4GG 4GGG/)	.	.
!!LO:LB:g=original
=159	=159	=159
(4C 4CC\	8ee 8g\	.
.	[4cc [4e\	.
8G 8GG\)	.	.
(8C 8CC\	4cc] 4e\]	.
[4GG [4GGG/)	.	.
.	8qgg/	.
.	8ff 8a\	.
=160	=160	=160
(8GG]L 8GGG\]	8ee 8g\	.
8C 8CC\	[4cc [4e\	.
8GJ 8GG\)	.	.
(>8C 8CC/	4.cc] 4.e\]	.
4GG 4GGG/)	.	.
=161	=161	=161
!	!LO:TX:Bi:b:t=cre-scen-do:problem=dynamics with extention lines	!LO:HP:t=cre-scen-do
(4D 4DD\	8dd 8f\	<
.	[4g [4f [4B/	.
8E 8EE\)	.	.
(8D 8DD\	4g] 4f] 4B/]	.
[4GG [4GGG/)	.	.
.	8ee 8g\	.
=162	=162	=162
(8GG]L 8GGG\]	8dd 8f\	.
8D 8DD\	[4g [4f [4B/	.
8EJ 8EE\)	.	.
(8D 8DD\	4.g] 4.f] 4.B/]	[[
4GG 4GGG/)	.	.
!!LO:PB:g=original
=163	=163	=163
(4C 4CC\	(8ee 8g 8e\	.
.	[4cc [<4e [4c\)	.
!	!	!LO:HP:b=2
8A 8AA\	.	<
8GL 8GG\	4cc] 4e] 4c\]	.
8E 8EE\	.	.
8FJ 8FF\)	8aa 8ee 8cc 8a\	.
=164	=164	=164
(8EL 8EE\	(8ggL 8cc 8g\	.
8C 8CC\	8ee 8g 8e\	.
8AJ 8AA\)	8ffJ 8cc 8f\)	.
(8G 8GG\	(8ee 8cc 8e\	.
4E 4EE\)	4cc 4g 4c\)	[[
=165	=165	=165
(4C 4CC/	(8eee 8gg 8ee\	f
.	[4ccc [<4ee [4cc\)	.
8G 8GG\)	.	.
(>8C 8CC/	4ccc] 4ee] 4cc\]	.
[4GG [4GGG/)	.	.
.	8fff 8aa 8ff\	.
=166	=166	=166
(8GG]L 8GGG\]	8eee 8gg 8ee\	.
8C 8CC\	[4ccc [<4gg [4ee\	.
8GJ 8GG\)	.	.
(>8C 8CC/	4.ccc] 4.gg] 4.ee\]	.
4GG 4GGG/)	.	.
!!LO:LB:g=original
=167	=167	=167
(4C 4CC/	(8eee 8gg 8ee\	.
.	[4ccc [<4ee [4cc\)	.
8G 8GG\)	.	.
(>8C 8CC/	4ccc] 4ee] 4cc\]	.
[4GG [4GGG/)	.	.
.	8qggg/	.
.	8fff 8aa 8ff\	.
=168	=168	=168
(8GG]L 8GGG\]	8eee 8gg 8ee\	.
8C 8CC\	[4ccc [<4ee [4cc\	.
8GJ 8GG\)	.	.
(>8C 8CC/	4.ccc] 4.ee] 4.cc\]	.
4GG 4GGG/)	.	.
=169	=169	=169
(4D 4DD\	(8ddd 8ff 8dd\	.
.	[4gg [<4ff [4b\)	.
8E 8EE\)	.	.
(8D 8DD\	4gg] 4ff] 4b\]	.
[4GG [4GGG/)	.	.
.	8eee 8gg 8ee\	.
=170	=170	=170
(8GG]L 8GGG\]	8ddd 8ff 8dd\	.
8D 8DD\	[4gg [<4ff [4b\	.
8EJ 8EE\)	.	.
(8D 8DD\	4.gg] 4.ff] 4.b\]	.
4GG 4GGG/)	.	.
!!LO:LB:g=original
=171	=171	=171
(4C 4CC/	8eee 8gg 8ee\	.
.	[4ccc [<4ee [4cc\	.
8A 8AA\	.	.
8GL 8GG\	4ccc] 4ee] 4cc\]	.
8E 8EE\	.	.
8FJ 8FF\)	8aa 8cc 8a\	.
=172	=172	=172
(8EL 8EE\	(8ggL 8cc 8g\	.
8C 8CC\	8ee 8g 8e\	.
8AJ 8AA\)	8ffJ 8cc 8f\)	.
(8G 8GG\	(8ee 8cc 8e\	.
4E 4EE\)	4cc 4g 4c/)	.
=173	=173	=173
(4D 4DD\	(8dd 8g 8f\	f
.	[4g [4f [4B/)	.
8E 8EE\)	.	.
8D 8DD\	4g] 4f] 4B/]	.
[4GG [4GGG/	.	.
.	8ee 8g\	.
=174	=174	=174
4GG] 4GGG/]	(8dd 8g 8f\	.
.	[4g [4f [4B/)	.
8D 8DD\	.	.
(8E 8EE\	4.g] 4.f] 4.B/]	.
4D 4DD\)	.	.
!!LO:LB:g=original
=175	=175	=175
!	!	!LO:DY:rj
(8d 8G 8F\	8r	p
[4G [<4F [4BB\)	8r	.
.	8eee 8ee\	.
4G] 4F] 4BB\]	(8ddd 8gg 8dd\	.
.	[4gg [4g\)	.
8e 8G\	.	.
=176	=176	=176
(8d 8G 8F\	(4gg] 4g\]	.
[4G [<4F [4BB\)	.	.
.	8ddd 8dd\)	.
4.G] 4.F] 4.BB\]	(8eee 8ee\	.
.	4ddd 4dd\)	.
=177	=177	=177
(4C 4CC/	(8ee 8g\	f
.	[4cc [4e\)	.
8A 8AA\)	.	.
(>8G 8GG/	4cc] 4e\]	.
[4GG [4GGG/)	.	.
.	8ff 8a\	.
=178	=178	=178
4GG] 4GGG/]	(8ee 8g\	.
.	[4cc [4e\)	.
8G 8GG\	.	.
(8A 8AA\	4.cc] 4.e\]	.
4G 4GG\)	.	.
!!LO:LB:g=original
=179	=179	=179
!	!	!LO:DY:rj
(8e 8G\	8r	p
[4c [4E\)	8r	.
.	8aaa 8aa\	.
4c] 4E\]	(8ggg 8gg\	.
.	[4gg [4g\)	.
8f 8A\	.	.
=180	=180	=180
(8e 8G\	4gg] 4g\]	.
[4c [4E\)	.	.
.	8ggg 8gg\	.
4.c] 4.E\]	(8aaa 8aa\	.
.	4ggg 4gg\)	.
=181	=181	=181
!	!	!LO:DY:rj
(4c 4C\	(8eee 8gg 8ee\	ff
.	[4ccc [<4ee [4cc\)	.
8B 8BB\)	.	.
(8B-XL 8BB-X\	4ccc] 4ee] 4cc\]	.
8A 8AA\	.	.
8A-XJ 8AA-X\)	8fff 8ccc 8ff\	.
=182	=182	=182
(4G 4GG\	8eee 8ccc 8ee\	.
.	[4ccc [<4ee [4cc\	.
8A 8AA\	.	.
8G 8GG\	4.ccc] 4.ee] 4.cc\]	.
4E 4EE\)	.	.
!!LO:PB:g=original
=183	=183	=183
(>4C 4CC/	(8eee 8gg 8ee\	.
.	[4ccc [<4ee [4cc\)	.
8BB 8BBB/)	.	.
(>8BB-XL 8BBB-X/	4ccc] 4ee] 4cc\]	.
8AA 8AAA/	.	.
.	8qggg/	.
8AA-XJ 8AAA-X/)	8fff 8ccc 8ff\	.
=184	=184	=184
(>4GG 4GGG/	(8eee 8ccc 8ee\	.
.	[4ccc [<4ee [4cc\)	.
8AAn 8AAAn/	.	.
8GG 8GGG/	4.ccc] 4.ee] 4.cc\]	.
!LO:SIC:v:n=2:s=4EEE/)	!	!
4EE 4FFF/)	.	.
=185	=185	=185
(>4AA-X 4AAA-X/	(8ddd 8ff 8dd\	.
.	[4gg [<4b [4g\)	.
8AAn 8AAAn/	.	.
8BB-X 8BBB-X/	4gg] 4b] 4g\]	.
[4BBn [4BBBn/)	.	.
.	8eee 8gg 8ee\	.
=186	=186	=186
(8BB]L 8BBB/]	(8ddd 8ff 8dd\	.
8C 8CC/	[4gg [<4b [4g\)	.
8C#XJ 8CC#X/)	.	.
8D 8DD\	4.gg] 4.b] 4.g\]	.
4D#X 4DD#X\	.	.
!!LO:LB:g=original
=187	=187	=187
(8EL 8EE\	8eee 8ccc 8ee\	.
8F 8FF\	[4ccc [<4ee [4cc\	.
8F#XJ 8FF#X\)	.	.
(8GL 8GG\	4ccc] 4ee] 4cc\]	.
8E 8EE\	.	.
!LO:ACC:color=dodgerblue	!	!
8FnJ 8FFn\)	8aa 8cc 8a\	.
=188	=188	=188
(8EL 8EE\	(8ggL 8cc 8g\	.
8C 8CC\	8ee 8g 8e\	.
8AJ 8AA\)	8ffJ 8cc 8f\)	.
8G 8GG\	8ee 8cc 8e\	.
4E 4EE\	4cc 4g 4c\	.
=189	=189	=189
!	!	!LO:DY:rj
(4c 4C\	(8ee 8g 8e\	p
.	[4cc [4e [4c\)	.
8B 8BB\	.	.
8B-XL 8BB-X\	4cc] 4e] 4c\]	.
8A 8AA\	.	.
8A-XJ 8AA-X\)	8ff 8cc 8f\	.
=190	=190	=190
(4G 4GG\	(8ee 8cc 8e\	.
.	[4cc [<4e [4c\)	.
8An 8AAn\)	.	.
(8G 8GG\	4.cc] 4.e] 4.c\]	.
4E 4EE\)	.	.
!!LO:LB:g=original
=191	=191	=191
!	!	!LO:DY:rj
(4C 4CC/	(>8e 8G/	f
.	[4c [4E/)	.
8BB 8BBB/	.	.
8BB-XL 8BBB-X/	4c] 4E/]	.
8AA 8AAA/	.	.
8AA-XJ 8AAA-X/)	8f 8c 8F/	.
=192	=192	=192
!	!	!LO:HP:t=dim
(>4GG 4GGG/	8e 8c 8E/	>
.	[4c [4E/	.
8AAn 8AAAn/)	.	.
(>8GG 8GGG/	4.c] 4.E/]	.
4EE 4EEE/)	.	.
=193	=193	=193
!	!	!LO:DY:rj
4AA-X 4AAA-X/	(8dd 8f 8d\	p
.	[4g [4B [4G/)	.
8AAn 8AAAn/	.	.
8BB-X 8BBB-X/	4g] 4B] 4G/]	.
[4BBn [4BBBn/	.	.
.	8ee 8g 8e\	.
=194	=194	=194
(4BB] 4BBB/]	8dd 8f 8d\	.
.	[4g [4f [4B/	.
8E 8EE\	.	.
8D 8DD\	4.g] 4.f] 4.B/]	.
4GG 4GGG/)	.	.
!!LO:LB:g=original
=195	=195	=195
!	!	!LO:DY:rj
(4AA-X 4AAA-X/	8d 8F/	f
.	[4G [4F/	.
8AAn 8AAAn/	.	.
8BB-X 8BBB-X/	4G] 4F/]	.
[4BBn [4BBBn/)	.	.
.	8e 8G 8E/	.
=196	=196	=196
!	!	!LO:HP:t=dim
(4BB] 4BBB\]	8d 8G 8F/	>
.	[4G [4F/	.
8E 8EE\	.	.
8DL 8DD\	8G] 8F/]	.
8GGJ 8GGG\)	8r	.
!	!	!LO:DY:rj
8r	(8e/	f
=197	=197	=197
8r	8d/L	.
8r	8G/J)	.
!	!	!LO:DY:rj
(8E\	8r	pp
8D\L	4r	.
8GG\J)	.	.
!	!	!LO:DY:rj
8r	8ee 8e\	p
=198	=198	=198
!	!LO:TX:t=P:stem.color=dodgerblue:problem	!
2.r	(8ddL (8d\	.
.	8gJ) 8G\)	.
.	8r@	.
.	4r@	.
.	8e-X/	f
!!LO:LB:g=original
=199	=199	=199
8r	(8d/L	.
8r	8G/J)	.
!	!	!LO:DY:b=2:rj
8E-X\	8r	pp
(8D\L	4r	.
8GG\)	.	.
!	!	!LO:DY:rj
8E-J 8EE-X\	8ee-X 8e-X\	p
=200	=200	=200
!LO:TX:t=P:stem.color=dodgerblue:problem	!LO:TX:t=P:stem.color=dodgerblue:problem	!
(8DL (8DD\	(8ddL (8d\	.
8GGJ 8GGG\))	8gJ 8G\))	.
8r@	8r@	.
!	!LO:TX:b:i:t=Scherzo da capo al segno\ne poi coda.	!
4r@	4r@	.
!!LO:PB:g=original
=201||	=201||	=201||
*>C	*>C	*>C
*k[]	*k[]	*
*M6/8	*M6/8	*
!	!LO:TX:a:Bi:t=Coda.	!LO:DY:rj
(4C 4CC\	[2.ccc [<2.ee [2.cc\	ff
8G 8GG\)	.	.
(>8C 8CC/	.	.
4GG 4GGG/)	.	.
=202	=202	=202
8CL 8CC\	2.ccc] 2.ee] 2.cc\]	.
!	!	!LO:HP:t=dim
(8C 8CC\	.	>
8GJ 8GG\)	.	.
(8C 8CC\	.	.
4GG 4GGG/)	.	.
=203	=203	=203
!	!	!LO:DY:rj
(4c 4C\	(8ee 8g 8e\	p
.	[4cc [<4e [4c'\)	.
8B 8BB\	.	.
8B-XL 8BB-X\	4cc] 4e] 4c\]	.
8A 8AA\	.	.
8A-XJ 8AA-X\)	8ff 8cc 8f\	.
=204	=204	=204
(4G 4GG\	(8ee 8cc 8e\	.
.	[4cc [<4g [4c\)	.
8An 8AAn\)	.	.
(8G 8GG\	4.cc] 4.g] 4.c\]	.
4E 4EE\)	.	.
!!LO:LB:g=original
=205	=205	=205
!	!	!LO:DY:rj
(4C 4CC/	[2.aa-X [2.cc [2.a-X\	ff
8F 8FF\)	.	.
(>8C 8CC/	.	.
4FF 4FFF/)	.	.
=206	=206	=206
8CL 8CC\	2.aa-] 2.cc] 2.a-\]	.
(8C 8CC\	.	.
!	!	!LO:HP:t=dim
8FJ 8FF\)	.	>
(8C 8CC\	.	.
4FF 4FFF/)	.	.
=207	=207	=207
!	!	!LO:DY:rj
(>4GG 4GGG/	(8dd 8g 8f\	p
.	[4g [4f [4B/)	.
8AA 8AAA/)	.	.
(8AA#X 8AAA#X/	4g] 4f] 4B/]	.
[4BB [4BBB/)	.	.
.	8ee 8g 8e\	.
=208	=208	=208
(8BB]L 8BBB/]	(8dd 8g 8f\	.
8C 8CC/	[4g [4f [4B/)	.
8C#XJ 8CC#X/)	.	.
(8E 8EE\	4.g] 4.f] 4.B/]	.
4D 4DD\)	.	.
!!LO:LB:g=original
=209	=209	=209
!	!	!LO:DY:rj
(4C 4CC/	[2.cc [2.e [2.c/	ff
8G 8GG\)	.	.
(>8C 8CC/	.	.
4GG 4GGG/)	.	.
=210	=210	=210
8CL 8CC\	2.cc] 2.e] 2.c/]	.
(8C 8CC\	.	.
!	!	!LO:HP:t=dim
8GJ 8GG\)	.	>
(>8C 8CC/	.	.
4GG 4GGG/)	.	.
=211	=211	=211
!	!	!LO:DY:rj
(4C 4CC/	(>8e 8G/	p
.	[4c [4E/)	.
8BB 8BBB/	.	.
8BB-XL 8BBB-X/	4c] 4E/]	.
8AA 8AAA/	.	.
8AA-XJ 8AAA-X/)	8f 8c 8F/	.
=212	=212	=212
(>4GG 4GGG/	(>8e 8c/	.
.	[4c [4E/)	.
8AAn 8AAAn/)	.	.
(>8GG 8GGG/	4.c] 4.E/]	.
4EE 4EEE/)	.	.
!!LO:LB:g=original
=213	=213	=213
!	!	!LO:DY:rj
(4C 4CC/	[2.a-X [2.c [2.A-X/	ff
8F 8FF\)	.	.
(>8C 8CC/	.	.
4FF 4FFF/)	.	.
=214	=214	=214
8CL 8CC\	2.a-] 2.c] 2.A-/]	.
(8C 8CC\	.	.
!	!	!LO:HP:t=dim
8FJ 8FF\)	.	>
(>8C 8CC/	.	.
4FF 4FFF/)	.	.
=215	=215	=215
!	!	!LO:DY:rj
(>4GG 4GGG/	(>8d 8G 8F/	p
.	[4G [4F/)	.
8AA 8AAA/)	.	.
(>8AA#X 8AAA#X/	4G] 4F/]	.
[4BB [4BBB/)	.	.
.	8e 8G 8E/	.
=216	=216	=216
(>8BB]L 8BBB/]	8d 8G 8F/	.
8C 8CC/	[4G [4F/	.
8C#XJ 8CC#X/)	.	.
(>8EL 8EE/	4G] 4F/]	.
8DJ 8DD/)	.	.
8G 8GG/	8g 8f 8B/	.
!!LO:LB:g=original
=217	=217	=217
(8cL 8C\	[2.cc [>2.e [2.c/	.
8B 8BB\	.	.
8B-XJ 8BB-X\)	.	.
(8A 8AA\	.	.
4A-X 4AA-X\)	.	.
=218	=218	=218
[4.G [4.GG\	8.cc]L 8.e] 8.c\]	.
.	16eeK 16cc 16e\	.
.	8ffJ 8dd 8f\	.
4G] 4GG\]	8ggL 8ee 8g\	.
.	8aa 8ff 8a\	.
8GG 8GGG/	8bbJ 8gg 8ff 8b\	.
=219	=219	=219
(8CL 8CC/	[2.ccc [<2.ee [2.cc\	.
8BB 8BBB/	.	.
8BB-XJ 8BBB-X/)	.	.
8AA 8AAA/	.	.
4AA-X 4AAA-X/	.	.
=220	=220	=220
(4.GG (4.GGG/	8.ccc]L 8.ee] 8.cc\]	.
.	16eeeK 16ccc 16ee\	.
.	8fffJ 8ddd 8ff\	.
4GG 4GGG/))	8gggL 8eee 8gg\	.
.	8aaa 8fff 8aa\	.
8G 8GG\	8ccccJ 8ggg 8fff 8bb\	.
!!LO:LB:g=original
=221	=221	=221
!	!LO:SIC:v:n=1:s=[4.cccc	!
(8cL 8C\	[4.bbb [4.eee [4.ccc\	.
8B 8BB\	.	.
8AJ 8AA\)	.	.
!	!LO:SIC:v:n=1:s=4.cccc]	!
[4.B [4.BB\	4bbb] 4eee] 4ccc\]	.
.	8ccc 8ee 8cc\	.
=222	=222	=222
(8B]L 8BB\]	[4.eee [<4.ccc [4.ee\	.
8A 8AA\	.	.
8GJ 8GG\)	.	.
[4.A [4.AA\	4eee] 4ccc] 4ee\]	.
.	8ee 8cc 8e\	.
=223	=223	=223
!	!LO:S:s=2:note:problem=note-level slur	!
(4.A] (4.AA\]	(4.ff (4.cc (4.f\	.
8F 8FF\))	8aa) 8ff) 8cc 8a\)	.
8r	8r	.
8r	8r	.
=224	=224	=224
8r	8r	.
8CL 8CC\	8cccL 8gg 8ee 8cc\	.
[8cJ [8C\	[8ccJ [<8g [8e [8c\	.
8c] 8C\]	8cc] 8g] 8e] 8c\]	.
8r	8r	.
8r	8r	.
==	==	==
*-	*-	*-
!!!system-decoration: {(s1,s2)}
!!!RDF**kern: > = above
!!!RDF**kern: < = below
!!!RDF**kern: N = linked
!!!RDF**kern: @ = marked note, color=dodgerblue
!!!ENC: Andrzej Gręziak
!!!END: 2021-10-22
!!!ENC: Andrzej Kubiczek
!!!END: 2021-10-31
